src/img/icons/icon-mail.svg

<svg width="18" height="22" viewBox="0 0 18 22" fill="none" xmlns="http://www.w3.org/2000/svg">
<path fill-rule="evenodd" clip-rule="evenodd" d="M2.39996 9.62482V6.10764L0.600156 7.86624L2.39996 9.62482ZM8.99955 6.93662C8.66903 6.93662 8.39952 7.19936 8.39952 7.52278C8.39952 7.8462 8.66903 8.10894 8.99955 8.10894C9.41495 8.10894 9.52517 7.83056 9.59108 7.48242C9.56866 7.17876 9.31529 6.93662 8.99955 6.93662ZM0.000144 19.2464V8.93778L5.75125 14.5569L0.180504 19.9998C0.068238 19.7704 0.000144 19.5171 0.000144 19.2464ZM17.8185 19.9998L12.2477 14.5569L17.999 8.93778V19.2464C17.999 19.5171 17.9307 19.7704 17.8185 19.9998ZM6.84805 15.143H11.1509L16.9701 20.8286C16.7354 20.9383 16.4761 21.0048 16.199 21.0048H1.79995C1.523 21.0048 1.26356 20.9383 1.02897 20.8286L6.84805 15.143ZM15.5991 6.10764L17.3989 7.86624L15.5991 9.62482V6.10764ZM11.1509 13.9707L14.3991 10.7971V1.74766C14.3991 1.33288 14.055 0.99666 13.6304 0.99666H4.25608C3.89365 0.99666 3.59987 1.2837 3.59987 1.63782V10.7971L6.84805 13.9707H11.1509ZM4.79979 7.52278C4.79979 5.26044 6.68407 3.41958 8.99955 3.41958C11.315 3.41958 13.1993 5.26044 13.1993 7.52278C13.1993 9.02958 11.3654 9.85332 10.199 8.82426C9.87982 9.10532 9.46188 9.28138 8.99955 9.28138C8.00699 9.28138 7.19962 8.49246 7.19962 7.52278C7.19962 6.5531 8.00699 5.76418 8.99955 5.76418C9.99198 5.76418 10.7994 6.5531 10.7994 7.52278C10.7994 8.29764 11.9993 8.29764 11.9993 7.52278C11.9993 5.9067 10.6541 4.59188 8.99955 4.59188C7.34495 4.59188 5.99971 5.9067 5.99971 7.52278C5.99971 8.5257 6.51766 9.44906 7.38592 9.99286C8.27651 10.5493 9.37913 10.6019 10.4139 10.1377C11.1292 9.81296 11.638 10.8783 10.9154 11.2024C9.54016 11.8205 8.01272 11.7769 6.73911 10.9797C5.52512 10.2195 4.79979 8.92756 4.79979 7.52278Z" fill="#FE3E57"/>
</svg>

<svg width="18" height="22" fill="none" xmlns="http://www.w3.org/2000/svg"><path fill-rule="evenodd" clip-rule="evenodd" d="M2.4 9.625V6.108L.6 7.866l1.8 1.759zM9 6.937c-.331 0-.6.262-.6.586 0 .323.269.586.6.586.415 0 .525-.278.591-.627A.59.59 0 009 6.937zm-9 12.31V8.936l5.751 5.62L.181 20a1.706 1.706 0 01-.18-.754zM17.82 20l-5.571-5.443L18 8.937v10.31c0 .27-.068.523-.18.753zM6.85 15.143h4.302l5.82 5.686c-.236.11-.495.176-.772.176H1.8c-.276 0-.535-.067-.77-.176l5.819-5.686zm8.75-9.035l1.8 1.758-1.8 1.759V6.108zm-4.448 7.863l3.248-3.174v-9.05a.76.76 0 00-.769-.75H4.256a.649.649 0 00-.656.64v9.16l3.248 3.174h4.303zM4.8 7.523C4.8 5.26 6.684 3.42 9 3.42c2.315 0 4.2 1.84 4.2 4.103 0 1.507-1.835 2.33-3.001 1.301a1.81 1.81 0 01-1.2.457c-.992 0-1.8-.789-1.8-1.758 0-.97.808-1.759 1.8-1.759.993 0 1.8.79 1.8 1.759 0 .775 1.2.775 1.2 0 0-1.616-1.345-2.931-3-2.931-1.654 0-3 1.315-3 2.93 0 1.004.519 1.927 1.387 2.47.89.557 1.993.61 3.028.146.715-.325 1.224.74.501 1.064-1.375.618-2.902.575-4.176-.222-1.214-.76-1.94-2.052-1.94-3.457z" fill="#FE3E57"/></svg>
